resources/icons/16px/cycle.svg

<?xml version="1.0" encoding="UTF-8"?>
<svg width="16px" height="16px" viewBox="0 0 16 16" version="1.1" xmlns="http://www.w3.org/2000/svg" xmlns:xlink="http://www.w3.org/1999/xlink">
    <title>Top choice</title>
    <g id="Top-choice" stroke="none" stroke-width="1" fill="none" fill-rule="evenodd">
        <path d="M13,9 C14.6568542,9 16,10.3431458 16,12 C16,13.6568542 14.6568542,15 13,15 C11.3431458,15 10,13.6568542 10,12 C10,10.3431458 11.3431458,9 13,9 Z M3,9 C4.65685425,9 6,10.3431458 6,12 C6,13.6568542 4.65685425,15 3,15 C1.34314575,15 0,13.6568542 0,12 C0,10.3431458 1.34314575,9 3,9 Z M9.16865044,3.72982898 L9.25640975,3.81949782 L10.766,5.566 L12.3549415,6.11503021 C12.8396396,6.28256628 13.1130065,6.78550626 13.0051288,7.27442853 L12.973389,7.38684887 C12.8058529,7.87154698 12.3029129,8.14491386 11.8139907,8.0370362 L11.7015703,8.00529636 L9.85940434,7.36855105 C9.73463546,7.32542464 9.62006163,7.25817201 9.52200159,7.17107257 L9.42968016,7.07751604 L8.471,5.969 L7.041,7.5 L8.73229923,9.319017 C8.8756814,9.4732039 8.9659966,9.66785769 8.99211883,9.87467582 L9,10 L9,13 C9,13.5522847 8.55228475,14 8,14 C7.48716416,14 7.06449284,13.6139598 7.00672773,13.1166211 L7,13 L6.999,10.392 L4.94263409,8.18070832 C4.61497695,7.82836021 4.58815863,7.29875924 4.86186262,6.91740501 L4.94395989,6.8173194 L7.76902657,3.79118996 C8.14570886,3.38769883 8.77006006,3.3702486 9.16865044,3.72982898 Z M13,10.5 C12.1715729,10.5 11.5,11.1715729 11.5,12 C11.5,12.8284271 12.1715729,13.5 13,13.5 C13.8284271,13.5 14.5,12.8284271 14.5,12 C14.5,11.1715729 13.8284271,10.5 13,10.5 Z M3,10.5 C2.17157288,10.5 1.5,11.1715729 1.5,12 C1.5,12.8284271 2.17157288,13.5 3,13.5 C3.82842712,13.5 4.5,12.8284271 4.5,12 C4.5,11.1715729 3.82842712,10.5 3,10.5 Z M11,1 C11.8284271,1 12.5,1.67157288 12.5,2.5 C12.5,3.32842712 11.8284271,4 11,4 C10.1715729,4 9.5,3.32842712 9.5,2.5 C9.5,1.67157288 10.1715729,1 11,1 Z" id="Combined-Shape" fill="#000000"></path>
    </g>
</svg>

<svg xmlns="http://www.w3.org/2000/svg" viewBox="0 0 16 16">
  <path d="M13 9a3 3 0 1 1 0 6 3 3 0 0 1 0-6M3 9a3 3 0 1 1 0 6 3 3 0 0 1 0-6m6.169-5.27.087.09 1.51 1.746 1.589.549a1 1 0 0 1 .65 1.16l-.032.112a1 1 0 0 1-1.159.65l-.112-.032-1.843-.636a1 1 0 0 1-.337-.198l-.092-.093-.959-1.109L7.041 7.5l1.691 1.819a1 1 0 0 1 .26.556L9 10v3a1 1 0 0 1-1.993.117L7 13l-.001-2.608-2.056-2.211a1 1 0 0 1-.081-1.264l.082-.1 2.825-3.026a1 1 0 0 1 1.4-.061M13 10.5a1.5 1.5 0 1 0 0 3 1.5 1.5 0 0 0 0-3m-10 0a1.5 1.5 0 1 0 0 3 1.5 1.5 0 0 0 0-3M11 1a1.5 1.5 0 1 1 0 3 1.5 1.5 0 0 1 0-3"/>
</svg>
